build/img/icon-fb.svg

<svg width="12" height="24" viewBox="0 0 12 24" xmlns="http://www.w3.org/2000/svg">
<path d="M11.5481 0.0049936L8.66986 0C5.43624 0 3.34653 2.31828 3.34653 5.90643V8.62969H0.452578C0.202506 8.62969 0 8.84891 0 9.11932V13.065C0 13.3354 0.202736 13.5544 0.452578 13.5544H3.34653V23.5106C3.34653 23.781 3.54904 24 3.79911 24H7.5749C7.82497 24 8.02748 23.7808 8.02748 23.5106V13.5544H11.4112C11.6613 13.5544 11.8638 13.3354 11.8638 13.065L11.8652 9.11932C11.8652 8.98948 11.8174 8.86514 11.7326 8.77326C11.6479 8.68138 11.5324 8.62969 11.4123 8.62969H8.02748V6.32115C8.02748 5.21157 8.27201 4.64829 9.60873 4.64829L11.5477 4.64755C11.7975 4.64755 12 4.42833 12 4.15817V0.494367C12 0.224462 11.7977 0.00549296 11.5481 0.0049936Z"/>
</svg>

<svg width="12" height="24" xmlns="http://www.w3.org/2000/svg"><path d="M11.548.005L8.67 0C5.436 0 3.347 2.318 3.347 5.906V8.63H.453c-.25 0-.453.219-.453.49v3.945c0 .27.203.49.453.49h2.894v9.956c0 .27.202.489.452.489h3.776c.25 0 .452-.22.452-.49v-9.956h3.384c.25 0 .453-.219.453-.489l.001-3.946a.51.51 0 00-.132-.346.436.436 0 00-.32-.143H8.026V6.32c0-1.11.245-1.673 1.582-1.673h1.939c.25 0 .452-.22.452-.49V.494c0-.27-.202-.489-.452-.489z"/></svg>
